svgs/tesla.svg

<svg width="192" height="192" viewBox="0 0 192 192" fill="none" xmlns="http://www.w3.org/2000/svg">
<path d="M167.524 45.7085C129.88 28.665 64.8578 26.8389 23.1067 45.7085L19 37.7955C56.6447 20.9289 123.036 17.9349 173 37.7955L167.524 45.7085Z" stroke="black" stroke-width="6" stroke-linecap="round" stroke-linejoin="round"/>
<path d="M33.6087 56.8695C36.7648 62.8521 41.6881 66.6508 51.8696 70.8695C53.4072 60.9353 60.9096 60.4731 76.2174 61.1304L95.6957 168.261L114.565 61.1304C129.966 60.8945 138.123 61.1342 140.739 70.8695C148.549 66.7626 152.605 63.8236 157.783 56.8695C139.991 48.9285 129.467 46.3862 109.696 45.3043L95.6957 62.3478L81.6957 45.3043C61.9212 46.5655 51.3711 49.0295 33.6087 56.8695Z" stroke="black" stroke-width="10" stroke-linejoin="round"/>
</svg>

<svg width="192" height="192" viewBox="0 0 192 192" fill="none" xmlns="http://www.w3.org/2000/svg"><path d="M167.524 45.709c-37.644-17.044-102.666-18.87-144.417 0L19 37.794c37.645-16.866 104.036-19.86 154 0l-5.476 7.913Z" stroke="#000" stroke-width="6" stroke-linecap="round" stroke-linejoin="round"/><path d="M33.609 56.87c3.156 5.982 8.08 9.78 18.26 14 1.538-9.935 9.04-10.397 24.348-9.74l19.479 107.131 18.869-107.13c15.401-.236 23.558.003 26.174 9.739 7.81-4.107 11.866-7.046 17.044-14-17.792-7.941-28.316-10.484-48.087-11.566l-14 17.044-14-17.044C61.92 46.565 51.37 49.03 33.609 56.87Z" stroke="#000" stroke-width="10" stroke-linejoin="round"/></svg>
